X: 9
T: Piper's Despair, The
Z: Paul F
S: https://thesession.org/tunes/336#setting51823
R: reel
M: 4/4
L: 1/8
K: Edor
|:EFGA BAFA|(3Bcd AB dBAF|D2 (3FED ADFA|B2 AB dBAF|
EFGA BAFA|(3Bcd AB dBAF|DEFA dfaf|1 gfed BcdB:|2 gfed Bcdf||
|:e2 (3gfe begf|efga bgaf|df f2 af f2|df f2 afdf|
ef (3gfe begf|efga b2 af|dcdf abaf|1 gfed Bcdf:|2gfed BcdB||

